icons/bricks-filled.svg

<svg xmlns="http://www.w3.org/2000/svg" width="24" height="24" viewBox="0 0 24 24">
    <path fill="#3A3A47" fill-rule="evenodd" d="M11.125 17c1.25 0 1.875.667 1.875 2v1c0 1.333-.625 2-1.875 2h-3.25C6.625 22 6 21.333 6 20v-1c0-1.333.625-2 1.875-2h3.25zm9 0c1.25 0 1.875.667 1.875 2v1c0 1.333-.625 2-1.875 2h-3.25C15.625 22 15 21.333 15 20v-1c0-1.333.625-2 1.875-2h3.25zM2 17c1.333.018 2 .684 2 2v1c0 1.333-.667 2-2 2v-5zm4.143-7C7.38 10 8 10.667 8 12v1c0 1.333-.619 2-1.857 2H2v-5h4.143zm8.982 0c1.25 0 1.875.667 1.875 2v1c0 1.333-.625 2-1.875 2h-3.25C10.625 15 10 14.333 10 13v-1c0-1.333.625-2 1.875-2h3.25zM2 3c1.333.018 2 .684 2 2v1c0 1.333-.667 2-2 2V3zm9.125 0C12.375 3 13 3.667 13 5v1c0 1.333-.625 2-1.875 2h-3.25C6.625 8 6 7.333 6 6V5c0-1.333.625-2 1.875-2h3.25z"/>
</svg>

<svg width="24" height="24" viewBox="0 0 24 24" fill="none" xmlns="http://www.w3.org/2000/svg">
<path fill-rule="evenodd" clip-rule="evenodd" d="M2 3C3.333 3.018 4 3.684 4 5V6C4 7.333 3.333 8 2 8V3ZM2 10H6.143C7.38 10 8 10.667 8 12V13C8 14.333 7.381 15 6.143 15H2V10ZM7.875 3H11.125C12.375 3 13 3.667 13 5V6C13 7.333 12.375 8 11.125 8H7.875C6.625 8 6 7.333 6 6V5C6 3.667 6.625 3 7.875 3ZM11.875 10H15.125C16.375 10 17 10.667 17 12V13C17 14.333 16.375 15 15.125 15H11.875C10.625 15 10 14.333 10 13V12C10 10.667 10.625 10 11.875 10ZM7.875 17H11.125C12.375 17 13 17.667 13 19V20C13 21.333 12.375 22 11.125 22H7.875C6.625 22 6 21.333 6 20V19C6 17.667 6.625 17 7.875 17ZM16.875 17H20.125C21.375 17 22 17.667 22 19V20C22 21.333 21.375 22 20.125 22H16.875C15.625 22 15 21.333 15 20V19C15 17.667 15.625 17 16.875 17ZM2 17C3.333 17.018 4 17.684 4 19V20C4 21.333 3.333 22 2 22V17Z" fill="#3A3A47"/>
</svg>
